Papirus-GTK/16x16/apps/cs-panel.svg

<svg height="16" viewBox="0 0 16 16" width="16" xmlns="http://www.w3.org/2000/svg"><path d="m .80078125 1c-.4432 0-.80078125.3464238-.80078125.7773438v.7773437 10.4453125h16v-10.4453125-.7773437c0-.4309201-.357581-.7773438-.800781-.7773438z" fill="#4ab3e4"/><path d="m .80000004 15c-.4432 0-.8-.346864-.8-.777784v-1.222216h15.99999996v1.222216c0 .43092-.3568.777784-.8.777784z" fill="#4d4d4d"/></svg>

<?xml version="1.0" encoding="UTF-8" standalone="no"?>
<!-- Created with Inkscape (http://www.inkscape.org/) -->

<svg
   xmlns:dc="http://purl.org/dc/elements/1.1/"
   xmlns:cc="http://creativecommons.org/ns#"
   xmlns:rdf="http://www.w3.org/1999/02/22-rdf-syntax-ns#"
   xmlns:svg="http://www.w3.org/2000/svg"
   xmlns="http://www.w3.org/2000/svg"
   xmlns:sodipodi="http://sodipodi.sourceforge.net/DTD/sodipodi-0.dtd"
   xmlns:inkscape="http://www.inkscape.org/namespaces/inkscape"
   id="svg4222"
   height="16"
   width="16"
   version="1.1"
   viewBox="0 0 16 16"
   inkscape:version="0.91 r13725"
   sodipodi:docname="cs-panel.svg">
  <defs
     id="defs10" />
  <sodipodi:namedview
     pagecolor="#ffffff"
     bordercolor="#666666"
     borderopacity="1"
     objecttolerance="10"
     gridtolerance="10"
     guidetolerance="10"
     inkscape:pageopacity="0"
     inkscape:pageshadow="2"
     inkscape:window-width="1600"
     inkscape:window-height="843"
     id="namedview8"
     showgrid="false"
     inkscape:zoom="22.61"
     inkscape:cx="1.7147455"
     inkscape:cy="8.9161747"
     inkscape:window-x="0"
     inkscape:window-y="0"
     inkscape:window-maximized="1"
     inkscape:current-layer="svg4222" />
  <metadata
     id="metadata4227">
    <rdf:RDF>
      <cc:Work
         rdf:about="">
        <dc:format>image/svg+xml</dc:format>
        <dc:type
           rdf:resource="http://purl.org/dc/dcmitype/StillImage" />
        <dc:title />
      </cc:Work>
    </rdf:RDF>
  </metadata>
  <path
     style="fill:#4ab3e4"
     d="M 0.80078125 1 C 0.35758125 1 1.4802974e-16 1.3464238 0 1.7773438 L 0 2.5546875 L 0 13 L 16 13 L 16 2.5546875 L 16 1.7773438 C 16 1.3464237 15.642419 1 15.199219 1 L 0.80078125 1 z "
     id="rect4203" />
  <path
     style="fill:#4d4d4d"
     inkscape:connector-curvature="0"
     d="m 0.80000004,15 c -0.4432,0 -0.8,-0.346864 -0.8,-0.777784 L 4e-8,13 16,13 16,14.222216 C 16,14.653136 15.6432,15 15.2,15 Z"
     id="rect3328"
     sodipodi:nodetypes="ssccsss" />
</svg>
